teeny/solid/forward.svg

<svg width="15" height="15" viewBox="0 0 15 15" fill="none" xmlns="http://www.w3.org/2000/svg">
<path d="M0.790619 2.09314C0.638212 1.98427 0.437745 1.96972 0.271209 2.05542C0.104674 2.14112 0 2.31271 0 2.5V12.5C0 12.6873 0.104674 12.8589 0.271209 12.9446C0.437745 13.0303 0.638212 13.0157 0.790619 12.9069L7 8.4716V12.5C7 12.6873 7.10467 12.8589 7.27121 12.9446C7.43774 13.0303 7.63821 13.0157 7.79062 12.9069L14.7906 7.90687C14.922 7.81301 15 7.66148 15 7.5C15 7.33853 14.922 7.18699 14.7906 7.09314L7.79062 2.09314C7.63821 1.98427 7.43774 1.96972 7.27121 2.05542C7.10467 2.14112 7 2.31271 7 2.5V6.52841L0.790619 2.09314Z" fill="black"/>
</svg>

<svg viewBox="0 0 15 15" xmlns="http://www.w3.org/2000/svg"><path d="M.79 2.09c-.16-.11-.36-.13-.52-.04 -.17.08-.28.25-.28.44v10c0 .18.1.35.27.44 .16.08.36.07.51-.04l6.2-4.44v4.02c0 .18.1.35.27.44 .16.08.36.07.51-.04l6.99-5.01c.13-.1.2-.25.2-.41 0-.17-.08-.32-.21-.41l-7-5c-.16-.11-.36-.13-.52-.04 -.17.08-.28.25-.28.44v4.02L.72 2.02Z"/></svg>
